icons/src/scalable/emblems/strong-language-symbolic.svg

<svg version="1.1" viewBox="0 0 16 16" xmlns="http://www.w3.org/2000/svg">
 <path d="m3 2v3h-2v1h2v4h-2v1h2v3h1v-3h4v3h1v-3h2v-1h-2v-4h2v-1h-2v-3h-1v3h-4v-3zm10 0v9h1v-9zm-9 4h4v4h-4zm9.5 6a1 1 0 0 0-1 1 1 1 0 0 0 1 1 1 1 0 0 0 1-1 1 1 0 0 0-1-1z" fill="#808080" stroke-width=".626"/>
</svg>

<?xml version="1.0" encoding="UTF-8" standalone="no"?>
<svg
   height="16px"
   viewBox="0 0 16 16"
   width="16px"
   version="1.1"
   id="svg175"
   sodipodi:docname="strong-language-symbolic.svg"
   inkscape:version="1.1 (c68e22c387, 2021-05-23)"
   xmlns:inkscape="http://www.inkscape.org/namespaces/inkscape"
   xmlns:sodipodi="http://sodipodi.sourceforge.net/DTD/sodipodi-0.dtd"
   xmlns="http://www.w3.org/2000/svg"
   xmlns:svg="http://www.w3.org/2000/svg">
  <defs
     id="defs179" />
  <sodipodi:namedview
     id="namedview177"
     pagecolor="#ffffff"
     bordercolor="#666666"
     borderopacity="1.0"
     inkscape:pageshadow="2"
     inkscape:pageopacity="0.0"
     inkscape:pagecheckerboard="0"
     showgrid="true"
     inkscape:zoom="23.5113"
     inkscape:cx="10.909647"
     inkscape:cy="9.1232725"
     inkscape:window-width="1366"
     inkscape:window-height="704"
     inkscape:window-x="0"
     inkscape:window-y="27"
     inkscape:window-maximized="1"
     inkscape:current-layer="svg175">
    <inkscape:grid
       type="xygrid"
       id="grid996" />
  </sodipodi:namedview>
  <filter
     id="a"
     height="1"
     width="1"
     x="0"
     y="0">
    <feColorMatrix
       in="SourceGraphic"
       type="matrix"
       values="0 0 0 0 1 0 0 0 0 1 0 0 0 0 1 0 0 0 1 0"
       id="feColorMatrix2" />
  </filter>
  <mask
     id="b">
    <g
       filter="url(#a)"
       id="g7">
      <path
         d="m 0 0 h 16 v 16 h -16 z"
         fill-opacity="0.3"
         id="path5" />
    </g>
  </mask>
  <clipPath
     id="c">
    <path
       d="m 0 0 h 1024 v 800 h -1024 z"
       id="path10" />
  </clipPath>
  <mask
     id="d">
    <g
       filter="url(#a)"
       id="g15">
      <path
         d="m 0 0 h 16 v 16 h -16 z"
         fill-opacity="0.05"
         id="path13" />
    </g>
  </mask>
  <clipPath
     id="e">
    <path
       d="m 0 0 h 1024 v 800 h -1024 z"
       id="path18" />
  </clipPath>
  <mask
     id="f">
    <g
       filter="url(#a)"
       id="g23">
      <path
         d="m 0 0 h 16 v 16 h -16 z"
         fill-opacity="0.05"
         id="path21" />
    </g>
  </mask>
  <clipPath
     id="g">
    <path
       d="m 0 0 h 1024 v 800 h -1024 z"
       id="path26" />
  </clipPath>
  <mask
     id="h">
    <g
       filter="url(#a)"
       id="g31">
      <path
         d="m 0 0 h 16 v 16 h -16 z"
         fill-opacity="0.05"
         id="path29" />
    </g>
  </mask>
  <clipPath
     id="i">
    <path
       d="m 0 0 h 1024 v 800 h -1024 z"
       id="path34" />
  </clipPath>
  <mask
     id="j">
    <g
       filter="url(#a)"
       id="g39">
      <path
         d="m 0 0 h 16 v 16 h -16 z"
         fill-opacity="0.05"
         id="path37" />
    </g>
  </mask>
  <clipPath
     id="k">
    <path
       d="m 0 0 h 1024 v 800 h -1024 z"
       id="path42" />
  </clipPath>
  <mask
     id="l">
    <g
       filter="url(#a)"
       id="g47">
      <path
         d="m 0 0 h 16 v 16 h -16 z"
         fill-opacity="0.05"
         id="path45" />
    </g>
  </mask>
  <clipPath
     id="m">
    <path
       d="m 0 0 h 1024 v 800 h -1024 z"
       id="path50" />
  </clipPath>
  <mask
     id="n">
    <g
       filter="url(#a)"
       id="g55">
      <path
         d="m 0 0 h 16 v 16 h -16 z"
         fill-opacity="0.05"
         id="path53" />
    </g>
  </mask>
  <clipPath
     id="o">
    <path
       d="m 0 0 h 1024 v 800 h -1024 z"
       id="path58" />
  </clipPath>
  <mask
     id="p">
    <g
       filter="url(#a)"
       id="g63">
      <path
         d="m 0 0 h 16 v 16 h -16 z"
         fill-opacity="0.3"
         id="path61" />
    </g>
  </mask>
  <clipPath
     id="q">
    <path
       d="m 0 0 h 1024 v 800 h -1024 z"
       id="path66" />
  </clipPath>
  <mask
     id="r">
    <g
       filter="url(#a)"
       id="g71">
      <path
         d="m 0 0 h 16 v 16 h -16 z"
         fill-opacity="0.5"
         id="path69" />
    </g>
  </mask>
  <clipPath
     id="s">
    <path
       d="m 0 0 h 1024 v 800 h -1024 z"
       id="path74" />
  </clipPath>
  <mask
     id="t">
    <g
       filter="url(#a)"
       id="g79">
      <path
         d="m 0 0 h 16 v 16 h -16 z"
         fill-opacity="0.4"
         id="path77" />
    </g>
  </mask>
  <clipPath
     id="u">
    <path
       d="m 0 0 h 1024 v 800 h -1024 z"
       id="path82" />
  </clipPath>
  <mask
     id="v">
    <g
       filter="url(#a)"
       id="g87">
      <path
         d="m 0 0 h 16 v 16 h -16 z"
         fill-opacity="0.4"
         id="path85" />
    </g>
  </mask>
  <clipPath
     id="w">
    <path
       d="m 0 0 h 1024 v 800 h -1024 z"
       id="path90" />
  </clipPath>
  <mask
     id="x">
    <g
       filter="url(#a)"
       id="g95">
      <path
         d="m 0 0 h 16 v 16 h -16 z"
         fill-opacity="0.5"
         id="path93" />
    </g>
  </mask>
  <clipPath
     id="y">
    <path
       d="m 0 0 h 1024 v 800 h -1024 z"
       id="path98" />
  </clipPath>
  <mask
     id="z">
    <g
       filter="url(#a)"
       id="g103">
      <path
         d="m 0 0 h 16 v 16 h -16 z"
         fill-opacity="0.5"
         id="path101" />
    </g>
  </mask>
  <clipPath
     id="A">
    <path
       d="m 0 0 h 1024 v 800 h -1024 z"
       id="path106" />
  </clipPath>
  <path
     id="rect7813"
     style="fill:#808080;fill-opacity:1;stroke-width:0.626"
     d="M 3 2 L 3 5 L 1 5 L 1 6 L 3 6 L 3 10 L 1 10 L 1 11 L 3 11 L 3 14 L 4 14 L 4 11 L 8 11 L 8 14 L 9 14 L 9 11 L 11 11 L 11 10 L 9 10 L 9 6 L 11 6 L 11 5 L 9 5 L 9 2 L 8 2 L 8 5 L 4 5 L 4 2 L 3 2 z M 13 2 L 13 11 L 14 11 L 14 2 L 13 2 z M 4 6 L 8 6 L 8 10 L 4 10 L 4 6 z M 13.5 12 A 1 1 0 0 0 12.5 13 A 1 1 0 0 0 13.5 14 A 1 1 0 0 0 14.5 13 A 1 1 0 0 0 13.5 12 z " />
</svg>
